src/icons/import-table.svg

<svg width="24" height="24" viewBox="0 0 24 24" fill="none" xmlns="http://www.w3.org/2000/svg">
<path fill-rule="evenodd" clip-rule="evenodd" d="M4 3V12L6 10H17V19H13L11 21H24V3H4ZM19 19H22V10H19V19ZM22 8V5H19V8H22ZM17 5H6V8H17V5Z" fill="black"/>
<path d="M5.5 20.5L8 18H0V16H8L5.5 13.5L7 12L12 17L7 22L5.5 20.5Z" fill="black"/>
</svg>

<svg xmlns="http://www.w3.org/2000/svg" width="24" height="24" fill="none"><path fill="currentColor" fill-rule="evenodd" d="M4 3v9l2-2h11v9h-4l-2 2h13V3zm15 16h3v-9h-3zm3-11V5h-3v3zm-5-3H6v3h11z" clip-rule="evenodd"/><path fill="currentColor" d="M5.5 20.5 8 18H0v-2h8l-2.5-2.5L7 12l5 5-5 5z"/></svg>
